Numix/16/status/indicator-keyboard-Es-8.svg

<?xml version="1.0" encoding="UTF-8" standalone="no"?>
<svg
   xmlns:dc="http://purl.org/dc/elements/1.1/"
   xmlns:cc="http://creativecommons.org/ns#"
   xmlns:rdf="http://www.w3.org/1999/02/22-rdf-syntax-ns#"
   xmlns:svg="http://www.w3.org/2000/svg"
   xmlns="http://www.w3.org/2000/svg"
   xmlns:sodipodi="http://sodipodi.sourceforge.net/DTD/sodipodi-0.dtd"
   xmlns:inkscape="http://www.inkscape.org/namespaces/inkscape"
   viewBox="0 0 16 16"
   id="svg2"
   version="1.1"
   inkscape:version="0.91 r13725"
   sodipodi:docname="indicator-keyboard-Es-8.svg">
  <metadata
     id="metadata14">
    <rdf:RDF>
      <cc:Work
         rdf:about="">
        <dc:format>image/svg+xml</dc:format>
        <dc:type
           rdf:resource="http://purl.org/dc/dcmitype/StillImage" />
      </cc:Work>
    </rdf:RDF>
  </metadata>
  <defs
     id="defs12" />
  <sodipodi:namedview
     pagecolor="#ffffff"
     bordercolor="#666666"
     borderopacity="1"
     objecttolerance="10"
     gridtolerance="10"
     guidetolerance="10"
     inkscape:pageopacity="0"
     inkscape:pageshadow="2"
     inkscape:window-width="640"
     inkscape:window-height="480"
     id="namedview10"
     showgrid="false"
     inkscape:zoom="14.75"
     inkscape:cx="8"
     inkscape:cy="8"
     inkscape:window-x="65"
     inkscape:window-y="24"
     inkscape:window-maximized="0"
     inkscape:current-layer="svg2" />
  <path
     style="fill:#ececec;fill-opacity:1"
     d="M 1.5996094 0 C 0.71320937 2.9605947e-16 0 0.71320937 0 1.5996094 L 0 14.400391 C 2.9605947e-16 15.286791 0.71320937 16 1.5996094 16 L 14.400391 16 C 15.286791 16 16 15.286791 16 14.400391 L 16 1.5996094 C 16 0.71320937 15.286791 0 14.400391 0 L 1.5996094 0 z M 2.5273438 4.859375 L 6.1269531 4.859375 L 6.1269531 5.390625 L 3.1386719 5.390625 L 3.1386719 7.5585938 L 5.8027344 7.5585938 L 5.8027344 8.0800781 L 3.1386719 8.0800781 L 3.1386719 10.564453 L 6.3613281 10.564453 L 6.3613281 11.095703 L 2.5273438 11.095703 L 2.5273438 4.859375 z M 8.7441406 6.3359375 C 9.0621406 6.3359375 9.3233437 6.3620156 9.5273438 6.4160156 C 9.7373437 6.4700156 9.8827969 6.5185469 9.9667969 6.5605469 L 9.8320312 7.0820312 C 9.7600313 7.0460313 9.6368906 6.9975 9.4628906 6.9375 C 9.2948906 6.8775 9.0467969 6.8476563 8.7167969 6.8476562 C 8.5847969 6.8476562 8.4578906 6.8625781 8.3378906 6.8925781 C 8.2238906 6.9165781 8.1232031 6.9595312 8.0332031 7.0195312 C 7.9432031 7.0735313 7.8704063 7.144375 7.8164062 7.234375 C 7.7624062 7.318375 7.7363281 7.4247812 7.7363281 7.5507812 C 7.7363281 7.6767813 7.7605937 7.7830469 7.8085938 7.8730469 C 7.8565938 7.9630469 7.9236719 8.0451875 8.0136719 8.1171875 C 8.1096719 8.1831875 8.2254219 8.2466406 8.3574219 8.3066406 C 8.4954219 8.3666406 8.6502187 8.4319062 8.8242188 8.5039062 C 9.0042187 8.5759062 9.1758906 8.6505156 9.3378906 8.7285156 C 9.5058906 8.8005156 9.6532969 8.8900469 9.7792969 8.9980469 C 9.9052969 9.1000469 10.005984 9.2269531 10.083984 9.3769531 C 10.161984 9.5209531 10.201172 9.7037812 10.201172 9.9257812 C 10.201172 10.345781 10.042609 10.664859 9.7246094 10.880859 C 9.4126094 11.096859 8.9835 11.203125 8.4375 11.203125 C 8.0295 11.203125 7.7179531 11.167703 7.5019531 11.095703 C 7.2859531 11.029703 7.1423125 10.979359 7.0703125 10.943359 L 7.2226562 10.412109 C 7.2406563 10.424109 7.2798437 10.444609 7.3398438 10.474609 C 7.3998437 10.498609 7.4800313 10.528453 7.5820312 10.564453 C 7.6840313 10.594453 7.8053594 10.622484 7.9433594 10.646484 C 8.0873594 10.670484 8.2515 10.681641 8.4375 10.681641 C 8.7735 10.681641 9.049625 10.627531 9.265625 10.519531 C 9.487625 10.405531 9.5996094 10.217125 9.5996094 9.953125 C 9.5996094 9.827125 9.5771562 9.7189062 9.5351562 9.6289062 C 9.4991562 9.5389062 9.4357031 9.4587188 9.3457031 9.3867188 C 9.2557031 9.3147188 9.1363281 9.2456875 8.9863281 9.1796875 C 8.8423281 9.1136875 8.6632656 9.0353125 8.4472656 8.9453125 C 8.2732656 8.8733125 8.1071719 8.8005156 7.9511719 8.7285156 C 7.7951719 8.6505156 7.6571094 8.56475 7.5371094 8.46875 C 7.4171094 8.36675 7.322 8.2454219 7.25 8.1074219 C 7.178 7.9694219 7.1425781 7.8015156 7.1425781 7.6035156 C 7.1425781 7.2255156 7.2824531 6.9195469 7.5644531 6.6855469 C 7.8524531 6.4515469 8.2461406 6.3359375 8.7441406 6.3359375 z M 12.208984 8.7539062 C 12.411784 8.7539062 12.588128 8.7852563 12.736328 8.8476562 C 12.884528 8.9061562 13.004056 8.9845313 13.097656 9.0820312 C 13.195156 9.1795313 13.265694 9.2912156 13.308594 9.4160156 C 13.355394 9.5408156 13.378906 9.6681812 13.378906 9.8007812 C 13.378906 9.9294812 13.359312 10.049003 13.320312 10.158203 C 13.281312 10.263503 13.230369 10.361472 13.167969 10.451172 C 13.105569 10.536972 13.035031 10.613387 12.957031 10.679688 C 12.879031 10.745988 12.804569 10.800856 12.730469 10.847656 C 13.003469 10.964656 13.193534 11.111609 13.302734 11.287109 C 13.415834 11.462609 13.472656 11.64875 13.472656 11.84375 C 13.472656 12.01145 13.441306 12.164288 13.378906 12.304688 C 13.320406 12.445087 13.236153 12.566569 13.126953 12.667969 C 13.017753 12.765469 12.886469 12.841884 12.730469 12.896484 C 12.574469 12.954984 12.400084 12.984375 12.208984 12.984375 C 12.017884 12.984375 11.8435 12.956944 11.6875 12.902344 C 11.5354 12.847744 11.404116 12.771328 11.291016 12.673828 C 11.181816 12.572428 11.095603 12.454866 11.033203 12.322266 C 10.974703 12.185766 10.945313 12.038806 10.945312 11.878906 C 10.945312 11.742406 10.964906 11.618966 11.003906 11.509766 C 11.042906 11.396666 11.09385 11.296737 11.15625 11.210938 C 11.22255 11.121237 11.297006 11.042863 11.378906 10.976562 C 11.464706 10.906362 11.552884 10.845622 11.646484 10.794922 C 11.408584 10.677922 11.247909 10.540759 11.162109 10.380859 C 11.076309 10.220959 11.033203 10.046575 11.033203 9.859375 C 11.033203 9.691675 11.062594 9.5407968 11.121094 9.4042969 C 11.179594 9.2677969 11.259928 9.1521938 11.361328 9.0585938 C 11.466628 8.9610937 11.590075 8.8866375 11.734375 8.8359375 C 11.878675 8.7813375 12.037384 8.7539062 12.208984 8.7539062 z M 12.208984 9.0820312 C 12.080284 9.0820312 11.966641 9.101625 11.869141 9.140625 C 11.771641 9.179625 11.689347 9.2344875 11.623047 9.3046875 C 11.560647 9.3709875 11.513616 9.4493625 11.478516 9.5390625 C 11.447316 9.6287624 11.431641 9.7208594 11.431641 9.8183594 C 11.431641 9.9275594 11.443397 10.027487 11.466797 10.117188 C 11.494097 10.206888 11.541128 10.289181 11.611328 10.363281 C 11.681528 10.433481 11.779497 10.5001 11.904297 10.5625 C 12.029097 10.621 12.193684 10.677822 12.396484 10.732422 C 12.575884 10.631022 12.716966 10.505622 12.822266 10.357422 C 12.927566 10.209222 12.980469 10.023081 12.980469 9.8007812 C 12.980469 9.7110813 12.964794 9.6248624 12.933594 9.5390625 C 12.906294 9.4532625 12.861228 9.3768469 12.798828 9.3105469 C 12.740328 9.2403469 12.663906 9.1854844 12.566406 9.1464844 C 12.468906 9.1035844 12.349384 9.0820312 12.208984 9.0820312 z M 11.974609 10.929688 C 11.775709 11.023287 11.622872 11.150647 11.513672 11.310547 C 11.404472 11.466547 11.349609 11.656606 11.349609 11.878906 C 11.349609 11.988106 11.367244 12.088041 11.402344 12.181641 C 11.437444 12.275241 11.490347 12.357534 11.560547 12.427734 C 11.634647 12.497934 11.722825 12.554756 11.828125 12.597656 C 11.937325 12.636656 12.064684 12.65625 12.208984 12.65625 C 12.353284 12.65625 12.478684 12.636656 12.583984 12.597656 C 12.693184 12.554756 12.781362 12.497934 12.851562 12.427734 C 12.925662 12.357534 12.980525 12.275241 13.015625 12.181641 C 13.050725 12.088041 13.068359 11.988106 13.068359 11.878906 C 13.068359 11.711206 13.03505 11.57405 12.96875 11.46875 C 12.90635 11.36345 12.82405 11.277238 12.71875 11.210938 C 12.61735 11.144638 12.499787 11.091734 12.367188 11.052734 C 12.238488 11.013734 12.107209 10.972587 11.974609 10.929688 z "
     id="path4" />
</svg>

<svg xmlns="http://www.w3.org/2000/svg" viewBox="0 0 16 16">
 <path d="m 1.6 0 c -0.886 0 -1.6 0.713 -1.6 1.6 l 0 12.801 c 0 0.886 0.713 1.6 1.6 1.6 l 12.801 0 c 0.886 0 1.6 -0.713 1.6 -1.6 l 0 -12.801 c 0 -0.886 -0.713 -1.6 -1.6 -1.6 l -12.801 0 z m 0.928 4.859 l 3.6 0 l 0 0.531 l -2.988 0 l 0 2.168 l 2.664 0 l 0 0.521 l -2.664 0 l 0 2.484 l 3.223 0 l 0 0.531 l -3.834 0 l 0 -6.236 z m 6.217 1.477 c 0.318 0 0.579 0.026 0.783 0.08 c 0.21 0.054 0.355 0.103 0.439 0.145 l -0.135 0.521 c -0.072 -0.036 -0.195 -0.085 -0.369 -0.145 c -0.168 -0.06 -0.416 -0.09 -0.746 -0.09 c -0.132 0 -0.259 0.015 -0.379 0.045 c -0.114 0.024 -0.215 0.067 -0.305 0.127 c -0.09 0.054 -0.163 0.125 -0.217 0.215 c -0.054 0.084 -0.08 0.19 -0.08 0.316 c 0 0.126 0.024 0.232 0.072 0.322 c 0.048 0.09 0.115 0.172 0.205 0.244 c 0.096 0.066 0.212 0.129 0.344 0.189 c 0.138 0.06 0.293 0.125 0.467 0.197 c 0.18 0.072 0.352 0.147 0.514 0.225 c 0.168 0.072 0.315 0.162 0.441 0.27 c 0.126 0.102 0.227 0.229 0.305 0.379 c 0.078 0.144 0.117 0.327 0.117 0.549 c 0 0.42 -0.159 0.739 -0.477 0.955 c -0.312 0.216 -0.741 0.322 -1.287 0.322 c -0.408 0 -0.72 -0.035 -0.936 -0.107 c -0.216 -0.066 -0.36 -0.116 -0.432 -0.152 l 0.152 -0.531 c 0.018 0.012 0.057 0.033 0.117 0.063 c 0.06 0.024 0.14 0.054 0.242 0.09 c 0.102 0.03 0.223 0.058 0.361 0.082 c 0.144 0.024 0.308 0.035 0.494 0.035 c 0.336 0 0.612 -0.054 0.828 -0.162 c 0.222 -0.114 0.334 -0.302 0.334 -0.566 c 0 -0.126 -0.022 -0.234 -0.064 -0.324 c -0.036 -0.09 -0.099 -0.17 -0.189 -0.242 c -0.09 -0.072 -0.209 -0.141 -0.359 -0.207 c -0.144 -0.066 -0.323 -0.144 -0.539 -0.234 c -0.174 -0.072 -0.34 -0.145 -0.496 -0.217 c -0.156 -0.078 -0.294 -0.164 -0.414 -0.26 c -0.12 -0.102 -0.215 -0.223 -0.287 -0.361 c -0.072 -0.138 -0.107 -0.306 -0.107 -0.504 c 0 -0.378 0.14 -0.684 0.422 -0.918 c 0.288 -0.234 0.682 -0.35 1.18 -0.35 z m 3.465 2.418 c 0.203 0 0.379 0.031 0.527 0.094 c 0.148 0.059 0.268 0.137 0.361 0.234 c 0.098 0.098 0.168 0.209 0.211 0.334 c 0.047 0.125 0.07 0.252 0.07 0.385 c 0 0.129 -0.02 0.248 -0.059 0.357 c -0.039 0.105 -0.09 0.203 -0.152 0.293 c -0.062 0.086 -0.133 0.162 -0.211 0.229 c -0.078 0.066 -0.152 0.121 -0.227 0.168 c 0.273 0.117 0.463 0.264 0.572 0.439 c 0.113 0.176 0.17 0.362 0.17 0.557 c 0 0.168 -0.031 0.321 -0.094 0.461 c -0.059 0.14 -0.143 0.262 -0.252 0.363 c -0.109 0.098 -0.24 0.174 -0.396 0.229 c -0.156 0.059 -0.33 0.088 -0.521 0.088 c -0.191 0 -0.365 -0.027 -0.521 -0.082 c -0.152 -0.055 -0.283 -0.131 -0.396 -0.229 c -0.109 -0.101 -0.195 -0.219 -0.258 -0.352 c -0.059 -0.137 -0.088 -0.283 -0.088 -0.443 c 0 -0.136 0.02 -0.26 0.059 -0.369 c 0.039 -0.113 0.09 -0.213 0.152 -0.299 c 0.066 -0.09 0.141 -0.168 0.223 -0.234 c 0.086 -0.07 0.174 -0.131 0.268 -0.182 c -0.238 -0.117 -0.399 -0.254 -0.484 -0.414 c -0.086 -0.16 -0.129 -0.334 -0.129 -0.521 c 0 -0.168 0.029 -0.319 0.088 -0.455 c 0.059 -0.136 0.139 -0.252 0.24 -0.346 c 0.105 -0.098 0.229 -0.172 0.373 -0.223 c 0.144 -0.055 0.303 -0.082 0.475 -0.082 z m 0 0.328 c -0.129 0 -0.242 0.02 -0.34 0.059 c -0.098 0.039 -0.18 0.094 -0.246 0.164 c -0.062 0.066 -0.109 0.145 -0.145 0.234 c -0.031 0.09 -0.047 0.182 -0.047 0.279 c 0 0.109 0.012 0.209 0.035 0.299 c 0.027 0.09 0.074 0.172 0.145 0.246 c 0.07 0.07 0.168 0.137 0.293 0.199 c 0.125 0.059 0.289 0.115 0.492 0.17 c 0.179 -0.101 0.32 -0.227 0.426 -0.375 c 0.105 -0.148 0.158 -0.334 0.158 -0.557 c 0 -0.09 -0.016 -0.176 -0.047 -0.262 c -0.027 -0.086 -0.072 -0.162 -0.135 -0.229 c -0.059 -0.07 -0.135 -0.125 -0.232 -0.164 c -0.098 -0.043 -0.217 -0.064 -0.357 -0.064 z m -0.234 1.848 c -0.199 0.094 -0.352 0.221 -0.461 0.381 c -0.109 0.156 -0.164 0.346 -0.164 0.568 c 0 0.109 0.018 0.209 0.053 0.303 c 0.035 0.094 0.088 0.176 0.158 0.246 c 0.074 0.07 0.162 0.127 0.268 0.17 c 0.109 0.039 0.237 0.059 0.381 0.059 c 0.144 0 0.27 -0.02 0.375 -0.059 c 0.109 -0.043 0.197 -0.1 0.268 -0.17 c 0.074 -0.07 0.129 -0.152 0.164 -0.246 c 0.035 -0.094 0.053 -0.194 0.053 -0.303 c 0 -0.168 -0.033 -0.305 -0.1 -0.41 c -0.062 -0.105 -0.145 -0.192 -0.25 -0.258 c -0.101 -0.066 -0.219 -0.119 -0.352 -0.158 c -0.129 -0.039 -0.26 -0.08 -0.393 -0.123 z" style="fill:#ececec;fill-opacity:1"/>
</svg>
